X:1
T:To Save a Poor Sinner Like Me
T:Anonymous
T:To Save a Poor Sinner Like Me
T:Public Domain
T:Public Domain
T:Public Domain
C:Anonymous
Z:Public Domain
%%score ( 1 2 ) ( 3 4 )
L:1/8
M:6/8
K:F
V:1 treble 
V:2 treble 
V:3 bass 
V:4 bass 
V:1
 (F/F/) | [FA][FA][FA] [FA]2 [EG]/[EG]/ | [EG] F4 [FA] | ccc [Ac][GB][FA] | [EG]3- [EG][FA][EB] | %5
w: 1.~When *|Je- sus was born in the|man- ger The|herds came thi- ther to see,|the * an- gels|
w: 2.~He~was *|wound- ed for my tr- ans-|gress- ions, Ac-|ed with sor- row was He;|the * gar- den|
w: 3.~He *|was brought to Pi- late for|judg- ment, He|sentenced to hang on a tree.|is * fin- ished!”|
w: 4.~But *|death and the grave could not|hold Him, He|them a- sun- der for thee.|the * third day|
w: 5.~I’m *|fight- ing my pass- age to|Heav- en, O’er|I shall con- quer- or be.|to * glo- ry|
 [Fc]>[EA][EG] F2 (F/F/) | [FB]>[FA][FB] [Fc]2 [Fd] | [Fc]>[Fd][Fc] [FA]<[FA][EG] | F3- F2 || %9
w: pro- claimed that~a Sav- ior *|born To save a poor|sin- ner like me. To save|a *|
w: He prayed, and~sweat great drops *|blood, To save a poor|sin- ner like me. To save|a *|
w: He cried, when~He suf- fered *|died To save a poor|sin- ner like me. To save|a *|
w: He rose, in spite of *|foes, To save a poor|sin- ner like me. To save|a *|
w: I’ll fly, and shout through *|sky: He saved a poor|sin- ner like me. To save|a *|
"^Refrain" [Fc] | d>dd d<d[Gd] | c>cc c<c[FA] | [EG]>[EG][EG] GA[F=B] | [Ec]3- [Ec]2 [FA]/[FB]/ | %14
w: sin-|ner, To save a poor sin-|save a poor sin- ner like|the an- gels pro- claimed that~a|ior * was born|
w: sin-|ner, To save a poor sin-|save a poor sin- ner like|the gar- den He prayed, and~sweat|drops * of blood,|
w: sin-|ner, To save a poor sin-|save a poor sin- ner like|is fin- ished!” He cried, when~He|fered * and died|
w: sin-|ner, To save a poor sin-|save a poor sin- ner like|the third day He rose, in|of * His foes,|
w: sin-|ner, To save a poor sin-|save a poor sin- ner like|to glo- ry I’ll fly, and|through * the sky:|
 [Fc]>[EA][EG] F2 (F/F/) | [FB]>[FA][FB] [Fd]2 [Fd] | [Fc]>[Fd][Fc] [FA]<[FA][EG] | F3- F2 |] %18
w: To save a poor sin- *|like me. * * *|||
w: To save a poor sin- *|like me. * * *|||
w: To save a poor sin- *|like me. * * *|||
w: To save a poor sin- *|like me. * * *|||
w: He saved a poor sin- *|like me. * * *|||
V:2
 x | x6 | x F4 x | F3 x3 | x6 | x3 F2 x | x6 | x6 | F3- F2 || x | F3 G2 x | E3 F2 x | x3 F2 x | %13
w: ||shep-|For||was|||poor *||ner, To|me. For|Sav-|
w: ||quaint-|In||of|||poor *||ner, To|me. In|great|
w: ||was|“It||and|||poor *||ner, To|me. “It|suf-|
w: ||burst|On||His|||poor *||ner, To|me. On|spite|
w: ||death|Then||the|||poor *||ner, To|me. Then|shout|
 x6 | x3 F2 x | x6 | x6 | F3- F2 |] %18
w: |ner||||
w: |ner||||
w: |ner||||
w: |ner||||
w: |ner||||
V:3
 [F,A,] | [F,C]2 [F,C] [C,B,]2 [C,B,] | [C,B,] [F,A,]4 [F,C] | [F,A,]3 F,E,[F,C] | %4
 [C,C]3- [C,C][F,C][G,C] | [A,C]>[C,C][C,B,] [D,A,]2 [D,A,] | [B,,D]2 [B,,D] [B,,B,]2 [B,,B,] | %7
 A,>B,[C,A,] [C,C]2 [C,B,] | [F,A,]3- [F,A,]2 || [F,A,] | B,3 [G,B,]2 [G,B,] | %11
 [C,B,]3 [F,A,]2 [F,C] | [G,C]2 [G,C] =B,C[G,D] | [C,C]3- [C,C]2 [F,C]/[F,G,]/ | %14
 [F,A,]>[C,C][C,B,] [D,A,]2 [A,,C] | [B,,D]2 [B,,D] [B,,B,]2 [B,,B,] | A,>B,[C,A,] [C,C]2 [C,B,] | %17
 [F,A,]3- [F,A,]2 |] %18
V:4
 x | x6 | x6 | x3 C2 x | x6 | x6 | x6 | C,2 x4 | x5 || x | B,3 x3 | x6 | x3 G,2 x | x6 | x6 | x6 | %16
 C,2 x4 | x5 |] %18

